assets/icons/icon-arrow-alt__right/web/icon-arrow-alt__right.svg

<?xml version="1.0" encoding="UTF-8" standalone="no"?>
<svg width="48px" height="48px" viewBox="0 0 48 48" version="1.1" xmlns="http://www.w3.org/2000/svg" xmlns:xlink="http://www.w3.org/1999/xlink">
    <!-- Generator: Sketch 45.2 (43514) - http://www.bohemiancoding.com/sketch -->
    <title>icon-arrow-alt__right</title>
    <desc>Created with Sketch.</desc>
    <defs></defs>
    <g id="Symbols" stroke="none" stroke-width="1" fill="none" fill-rule="evenodd">
        <g id="icon-arrow-alt__right" fill="#2D2D2D">
            <path d="M29.5454619,25.2722331 L28.4550092,26.3626858 C28.0680863,26.7496087 28.0682832,27.3771314 28.4615302,27.7703784 C28.8520545,28.1609027 29.4875246,28.1585976 29.8692228,27.7768994 L32.7106918,24.9354303 C32.9030839,24.7430382 32.999763,24.4911593 33,24.238174 C32.9964728,23.9765782 32.9004813,23.7240482 32.7106918,23.5342587 L29.8692228,20.6927896 C29.4822999,20.3058668 28.8547771,20.3060636 28.4615302,20.6993106 C28.0710059,21.0898349 28.073311,21.725305 28.4550092,22.1070032 L29.6202391,23.2722331 L13.9933977,23.2722331 C13.4447593,23.2722331 13,23.7160979 13,24.2722331 C13,24.8245179 13.4449463,25.2722331 13.9933977,25.2722331 L29.5454619,25.2722331 Z"></path>
        </g>
    </g>
</svg>

<svg width="48" height="48" viewBox="0 0 48 48" xmlns="http://www.w3.org/2000/svg"><title>icon-arrow-alt__right</title><path d="M29.545 25.272l-1.09 1.09a.993.993 0 0 0 .007 1.408 1 1 0 0 0 1.407.007l2.842-2.842a.984.984 0 0 0 .289-.697 1.005 1.005 0 0 0-.29-.704l-2.84-2.841a.993.993 0 0 0-1.408.006 1 1 0 0 0-.007 1.408l1.165 1.165H13.993a.994.994 0 0 0-.993 1c0 .553.445 1 .993 1h15.552z" fill="#2D2D2D" fill-rule="evenodd"/></svg>
